X: 1
T: Spootiskerry
R: reel
M: 4/4
L: 1/8
K: Gmaj
DE | G2 DE GDEG | DEGA B2 AB | G2 DE GABd |eged B2 AB |
G2 DE GDEG | DEGA B2 AB | g2 ed edBA | B2 G2 G2 :|
ef | g2 ed ed B2 | BABG E2 DE | GABd eged | B2 A2 A2 ef |
g2 ed ed B2 | BABG E2 DE | GABd eged | B2 G2 G2 ef |
g2 ed ed B2 | BABG E2 DE | GABd eged | B2 A2 A2 DE|
G2 DE GDEG | DEGA B2 AB | g2 ed edBA |B2 GB G2 ||


Tune 857	Setting 21199

